X: 14581
T: Gan Ainm
R: jig
M: 6/8
K: Dmajor
BGE D2 E|GAG ABd|c2 A AGA|=fed cBA|
BGE D2 E|GAG ABd|cee Bdd|ABA G2:|
BAB dBG|BAB dBG|cBc ecA|cBc ecA|
BAB dBG|BAB dBG|cee Bdd|ABA G2:|
fdB A2 B|ded efa|g2 e ede|=c'ba gfe|
fdB A2 B|ded efa|gbb faa|efe d2:|
fef afd|fef afd|gfg bge|gfg bge|
fef afd|fef afd|gbb faa|efe d2:|

